!!!!SEGMENT: Con2010-Tempus_est_ut_revertar.krn
!!!id: Con2010
!!!AGN: Motet
!!!voices: 4
!!!COM: Jean Conseil
!!!OTL: Tempus est ut revertar
**kern	**kern	**kern	**kern
*part4	*part3	*part2	*part1
*staff4	*staff3	*staff2	*staff1
*I"Bassus	*I"Tenor	*I"Altus	*I"Superius
*I'B	*I'T	*I'A	*I'S
*clefF4	*clefGv2	*clefGv2	*clefGv2
*k[b-]	*k[b-]	*k[b-]	*k[b-]
*F:	*F:	*F:	*F:
*M2/1	*M2/1	*M2/1	*M2/1
*met(C|)	*met(C|)	*met(C|)	*met(C|)
!!Section: Prima pars: Tempus est ut revertar
!!!OMD: Prima pars: Tempus est ut revertar
=1	=1	=1	=1
0G	0r	0r	0r
=2	=2	=2	=2
1F	0r	0r	0r
1G	.	.	.
=3	=3	=3	=3
2r	0d	0r	0r
2D	.	.	.
2F	.	.	.
2G	.	.	.
=4	=4	=4	=4
2E	1c	0r	0r
2.F	.	.	.
.	1d	.	.
4E	.	.	.
4D	.	.	.
4C	.	.	.
=5	=5	=5	=5
2BB-y	2r	0r	0r
2F	2A	.	.
2E	2c	.	.
2D	2d	.	.
=6	=6	=6	=6
2.F	4c	0A	1r
.	4B-y	.	.
.	4A	.	.
4E	4G	.	.
2.D	4F	.	[1d
.	4E	.	.
.	4D	.	.
4C	4C	.	.
=7	=7	=7	=7
1BB-y	1D	1G	1d]
1AA	1E	[1A	1c
=8	=8	=8	=8
0D	4F	1A]	2d
.	4E	.	.
.	4F	.	2d
.	4G	.	.
.	2A	2r	1f
.	2F	2A	.
=9	=9	=9	=9
1C	1G	1c	1e
1D	1F	1B-y	2d
.	.	.	[2f
=10	=10	=10	=10
2r	2.c	2A	2f]
2AA	.	2.c	4e
.	8B-yL	.	4d
.	8AJ	.	.
1C	2G	.	1e
.	.	4B-y	.
.	2E	[2A	.
=11	=11	=11	=11
1BB-y	2F	2A]	1d
.	2D	2G	.
2AA	2E	2A	2c
2GG	[2G	[2B-y	[2e
=12	=12	=12	=12
1BB-y	4G]	2B-]	4e]
.	4F	.	4d
.	4E	2G	1d
.	4D	.	.
1AA	1E	1A	.
.	.	.	2c#i
=13	=13	=13	=13
2r	0D	0F	[0d
2A	.	.	.
2.B-y	.	.	.
4A	.	.	.
=14	=14	=14	=14
2G	2r	0r	0d]
2F	2A	.	.
2G	2.B-y	.	.
4GG	.	.	.
4AA	4A	.	.
=15	=15	=15	=15
4BB-y	2G	2r	1r
4C	.	.	.
2D	2F	2A	.
2GG	2G	2B-y	2r
2C	2E	[2A	2e
=16	=16	=16	=16
2D	2D	4A]	2f
.	.	4G	.
2E	4r	1G	2.e
.	4G	.	.
2C	2c	.	.
.	.	.	4d
2D	[2B-y	2F	[2d
=17	=17	=17	=17
1E	4B-]	1G	2d]
.	4A	.	.
.	1G	.	2c#i
[1D	.	2r	1d
.	4F	2A	.
.	4E	.	.
=18	=18	=18	=18
2D]	2F	2B-y	0r
2C	2.c	2.A	.
1E	.	.	.
.	4B-y	4G	.
.	4A	[2G	.
.	4G	.	.
=19	=19	=19	=19
1D	1A	2G]	2r
.	.	2F#i	1d
[1GG	1B-y	[1G	.
.	.	.	2d
=20	=20	=20	=20
1GG]	2r	1G]	2d
.	1B-y	.	2d
1r	.	1r	1f
.	2A	.	.
=21	=21	=21	=21
1r	2G	0r	1e
.	1c	.	.
2r	.	.	[1d
[2D	2B-y	.	.
=22	=22	=22	=22
2D]	1A	1r	1d]
2D	.	.	.
2D	1F	2r	1r
2D	.	[2B-y	.
=23	=23	=23	=23
1F	0r	2B-]	0r
.	.	2A	.
1E	.	2G	.
.	.	[2c	.
=24	=24	=24	=24
[0D	1r	2c]	2r
.	.	2B-y	1d
.	2r	1A	.
.	[2A	.	2d
=25	=25	=25	=25
1D]	2A]	1F	2d
.	2A	.	2d
1r	2A	1r	1f
.	2A	.	.
=26	=26	=26	=26
1r	1c	0r	1e
2r	1B-y	.	[1d
[2D	.	.	.
=27	=27	=27	=27
2D]	1A	0r	2d]
2D	.	.	2d
2D	2r	.	2.f
2D	[2A	.	.
.	.	.	8eL
.	.	.	8dJ
=28	=28	=28	=28
1F	4A]	0r	2c
.	4G	.	.
.	4A	.	1d
.	4F	.	.
1E	2.G	.	.
.	.	.	2c
.	4A	.	.
=29	=29	=29	=29
1D	2B-y	1r	1d
.	2.A	.	.
2C	.	2r	2e
.	4G	.	.
[2D	4F	[2A	[2f
.	4E	.	.
=30	=30	=30	=30
2D]	1D	2A]	2f]
4C	.	2A	4e
4BB-y	.	.	4d
2AA	2E	2A	2c
2D	2F	2A	[2f
=31	=31	=31	=31
2C	2G	1c	4f]
.	.	.	4e
2AA	2A	.	2.e
2BB-y	2F	1B-y	.
.	.	.	4d
2GG	2G	.	[2d
=32	=32	=32	=32
1AA	1E	0A	2d]
.	.	.	2c#i
1D	1D	.	1d
=33	=33	=33	=33
1r	1r	1r	1r
1BB-y	1F	1B-y	1d
=34	=34	=34	=34
1BB-y	1F	1B-y	1d
1GG	1G	1B-y	[1d
=35	=35	=35	=35
1G	1B-y	2r	2d]
.	.	2B-y	2e
2F	2A	2c	4f
.	.	.	4e
[2B-y	[2G	2d	4d
.	.	.	4c
=36	=36	=36	=36
2B-]	2G]	2G	4d
.	.	.	4c
2A	2F	1d	1f
1G	1B-y	.	.
.	.	4c	2e
.	.	4B-y	.
=37	=37	=37	=37
2F	4A	2c	1f
.	4G	.	.
2D	4F	2d	.
.	4G	.	.
2F	2A	2c	2r
2G	[2B-y	2B-y	2d
=38	=38	=38	=38
1F	2B-]	1c	2f
.	2A	.	2f
[1BB-y	[1B-y	2r	2d
.	.	2d	[2f
=39	=39	=39	=39
1BB-]	1B-]	2f	4f]
.	.	.	4e
.	.	2f	4d
.	.	.	4c
1r	1r	2d	2B-y
.	.	[2f	2A
=40	=40	=40	=40
0r	0r	4f]	2B-y
.	.	4e	.
.	.	4d	2F
.	.	4c	.
.	.	4B-y	4G
.	.	4c	4A
.	.	4d	4B-y
.	.	4B-y	4G
=41	=41	=41	=41
2r	0r	2c	2A
2D	.	1d	1B-y
2F	.	.	.
2F	.	2c	4A
.	.	.	4G
=42	=42	=42	=42
2D	2r	[0d	0A
2.F	2D	.	.
.	2F	.	.
4E	.	.	.
4D	2F	.	.
4C	.	.	.
=43	=43	=43	=43
2BB-y	4D	0d]	0r
.	4E	.	.
2.D	4F	.	.
.	4G	.	.
.	2A	.	.
4C	.	.	.
4BB-y	[2B-y	.	.
4AA	.	.	.
=44	=44	=44	=44
4GG	2B-]	0r	0r
4AA	.	.	.
4BB-y	4A	.	.
4C	4G	.	.
4D	4F	.	.
4E	4G	.	.
4F	4A	.	.
4D	4F	.	.
=45	=45	=45	=45
2E	4G	0r	0r
.	4A	.	.
2D	2B-y	.	.
4C	2A	.	.
4BB-y	.	.	.
4AA	[2G	.	.
4GG	.	.	.
=46	=46	=46	=46
1AA	2G]	2r	1r
.	2F#i	2A	.
1GG	1G	1B-y	2r
.	.	.	2d
=47	=47	=47	=47
0r	1r	1c	1e
.	2r	2A	1f
.	2A	2F	.
=48	=48	=48	=48
2r	1B-y	2G	1d
2D	.	2F	.
1E	1c	1G	2r
.	.	.	2G
=49	=49	=49	=49
1F	2A	1r	1A
.	1F	.	.
2D	.	2r	1B-y
2BB-y	[2G	2d	.
=50	=50	=50	=50
1C	2G]	1e	2G
.	1A	.	2r
1D	.	1f	1r
.	2F	.	.
=51	=51	=51	=51
1GG	2G	2d	2r
.	1B-y	1G	2d
2r	.	.	1e
2C	2c	[2A	.
=52	=52	=52	=52
1D	2A	2A]	2f
.	2F	1B-y	1d
1E-i	1G	.	.
.	.	[2G	2B-y
=53	=53	=53	=53
1C	1E-i	4G]	2e-i
.	.	4F	.
.	.	4G	2e-i
.	.	4A	.
1BB-y	2F	1B-y	1d
.	2D	.	.
=54	=54	=54	=54
1C	1E	4A	2.c
.	.	4G	.
.	.	1G	.
.	.	.	4B-y
1D	[1Dl	.	4A
.	.	.	4G
.	.	2F#i	2A
=55	=55	=55	=55
00GG	00D]	00G	00B-y
=56||	=56||	=56||	=56||
*M2/1	*M2/1	*M2/1	*M2/1
*met(C|)	*met(C|)	*met(C|)	*met(C|)
!!Section: Secunda pars: Rex glorie
!!!OMD: Secunda pars: Rex glorie
1r	0G	0r	0r
[1C	.	.	.
=57	=57	=57	=57
1C]	0A	0r	0r
[1D	.	.	.
=58	=58	=58	=58
1D]	1F	1r	0r
1GG	2.G	[1G	.
.	4F	.	.
=59	=59	=59	=59
1C	4E	1G]	0c
.	4D	.	.
.	1E	.	.
1AA	.	[1A	.
.	4D	.	.
.	4C	.	.
=60	=60	=60	=60
0D	1F	1A]	0d
.	[1D	1F	.
=61	=61	=61	=61
1GG	2D]	1.G	1B-y
.	2.G	.	.
2.C	.	.	[1c
.	4F	.	.
.	4E	2G	.
4BB-y	4D	.	.
=62	=62	=62	=62
1AA	1C	1F	2c]
.	.	.	2c
1GG	1D	[1G	1B-y
=63	=63	=63	=63
2r	1C	1G]	0c
2E	.	.	.
2F	2r	1r	.
2F	2A	.	.
=64	=64	=64	=64
1G	2B-y	1r	0r
.	2B-y	.	.
1E	1c	2r	.
.	.	2C	.
=65	=65	=65	=65
1D	2A	2F	2r
.	2.d	2A	2F
1GG	.	1G	2B-y
.	4c	.	.
.	[2B-y	.	2d
=66	=66	=66	=66
1C	4B-]	1E	1c
.	4A	.	.
.	1G	.	.
1r	.	[1D	1A
.	2F#i	.	.
=67	=67	=67	=67
1.GG	2G	1D]	0G
.	2D	.	.
.	2D	1r	.
2GG	[2E	.	.
=68	=68	=68	=68
1AA	2E]	0r	0r
.	1F	.	.
1BB-y	.	.	.
.	[2G	.	.
=69	=69	=69	=69
1.C	4G]	1r	0r
.	4F	.	.
.	4E	.	.
.	4D	.	.
.	2E	[1G	.
2BB-y	2D	.	.
=70	=70	=70	=70
2.C	1E	2G]	1.c
.	.	2G	.
4BB-y	.	.	.
1AA	1C	1A	.
.	.	.	2c
=71	=71	=71	=71
1GG	1.G	1B-y	1d
1C	.	[1c	1e
.	2G	.	.
=72	=72	=72	=72
2FF	2F	1c]	0f
2.F	2.A	.	.
.	.	1r	.
4E	4G	.	.
4D	[2c	.	.
4C	.	.	.
=73	=73	=73	=73
1D	2c]	1r	0r
.	2B-y	.	.
2C	4c	2r	.
.	4B-y	.	.
[2D	4A	[2A	.
.	4G	.	.
=74	=74	=74	=74
4D]	4F	2A]	2r
4C	4E	.	.
4BB-y	4D	2A	1d
4AA	4C	.	.
2BB-y	1D	1G	.
2BB-y	.	.	2d
=75	=75	=75	=75
1AA	2E	1.A	1c
.	1A	.	.
1D	.	.	[1d
.	[2D	2A	.
=76	=76	=76	=76
1GG	2D]	1B-y	2d]
.	1G	.	2d
1C	.	1G	1e
.	[2C	.	.
=77	=77	=77	=77
1FF	2C]	1A	1c
.	1F	.	.
1BB-y	.	1F	1d
.	[2D	.	.
=78	=78	=78	=78
1GG	2D]	1.G	1B-y
.	1G	.	.
1C	.	.	[1c
.	[2E	2G	.
=79	=79	=79	=79
1AA	2E]	4A	2c]
.	.	4G	.
.	2A	4F	2c
.	.	4E	.
1BB-y	2G	2D	4d
.	.	.	4c
.	2F	2d	4B-y
.	.	.	4A
=80	=80	=80	=80
2C	2E	2c	2G
2GG	1D	2.B-y	2g
1AA	.	.	2f
.	.	4A	.
.	2C	[2A	[2e
=81	=81	=81	=81
1BB-y	1D	2A]	4e]
.	.	.	4d
.	.	2G	1d
1AA	1E	[1A	.
.	.	.	2c#i
=82	=82	=82	=82
1r	0D	1A]	[0d
[1F	.	1r	.
=83	=83	=83	=83
2F]	1.F	0r	1d]
2E	.	.	.
2D	.	.	1r
2C	2E	.	.
=84	=84	=84	=84
2F	2D	1.A	1r
2E	2C	.	.
2.D	[1F	.	[1d
.	.	2A	.
4C	.	.	.
=85	=85	=85	=85
4BB-y	1F]	1B-y	2d]
4AA	.	.	.
1D	.	.	2d
.	1G	1c	1e
2C	.	.	.
=86	=86	=86	=86
1D	1F	1A	1f
1GG	2.G	2.B-y	1d
.	4F	4A	.
=87	=87	=87	=87
1.C	4E	4G	2.e-i
.	4D	4F	.
.	1E	2.A	.
.	.	.	4d
.	.	.	4c
.	.	4G	4B-y
2BB-y	2D	[2G	[2d
=88	=88	=88	=88
1AA	2E	2G]	4d]
.	.	.	4c
.	2C	2F#i	1c
1GG	1D	1G	.
.	.	.	2BnXi
=89	=89	=89	=89
2r	1C	0r	1c
1G	.	.	.
.	2r	.	1r
2F	[2c	.	.
=90	=90	=90	=90
2E	2c]	1r	0r
2D	2B-y	.	.
2F	2A	2r	.
2E	2G	[2c	.
=91	=91	=91	=91
1D	2A	2c]	2r
.	2F	2B-y	1f
1C	1c	2A	.
.	.	2G	2e
=92	=92	=92	=92
0r	2G	2B-y	2d
.	1c	2A	2c
.	.	1G	2e
.	2B-y	.	2d
=93	=93	=93	=93
2r	1A	2A	1c
2AA	.	2c	.
2BB-y	2G	2B-y	2d
2D	2F	[2A	2f
=94	=94	=94	=94
2C	4G	2A]	2e
.	4F	.	.
2BB-y	4E	2G	1d
.	4D	.	.
1AA	1E	[1A	.
.	.	.	2c#i
=95	=95	=95	=95
2.D	4D	1A]	0d
.	4E	.	.
.	4F	.	.
4E	4G	.	.
2F	2A	1r	.
2G	[2G	.	.
=96	=96	=96	=96
1D	2G]	2r	1r
.	2F#i	2A	.
1GG	1G	2B-y	2r
.	.	2B-y	2d
=97	=97	=97	=97
2r	2r	1G	2e
2C	2.c	.	2e
2F	.	[1A	1c
.	4B-y	.	.
2F	4A	.	.
.	4G	.	.
=98	=98	=98	=98
1D	4F	1A]	0d
.	4E	.	.
.	1D	.	.
1GG	.	1B-y	.
.	[2G	.	.
=99	=99	=99	=99
1C	1G]	1.c	1e
2.FF	2.F	.	[1f
.	.	[2A	.
4GG	8EL	.	.
.	8DJ	.	.
=100	=100	=100	=100
2AA	2C	2A]	2f]
2BB-y	2D	2G	1d
1AA	1E	1A	.
.	.	.	2c#i
=101	=101	=101	=101
2r	1D	0r	1d
2D	.	.	.
1E	2r	.	1r
.	2G	.	.
=102	=102	=102	=102
1F	1A	0r	0r
2D	1B-y	.	.
[2G	.	.	.
=103	=103	=103	=103
4G]	1G	0r	0r
4F	.	.	.
4E	.	.	.
4D	.	.	.
2.C	2A	.	.
.	[2G	.	.
4BB-y	.	.	.
=104	=104	=104	=104
1AA	2G]	2r	1r
.	2F#i	2A	.
1GG	1G	1B-y	2r
.	.	.	2d
=105	=105	=105	=105
0r	1r	1c	1e
.	2r	1A	1f
.	2A	.	.
=106	=106	=106	=106
2r	1B-y	1r	1d
2D	.	.	.
1E	1c	2r	1r
.	.	2G	.
=107	=107	=107	=107
1F	2A	1A	2r
.	1F	.	2c
2D	.	1B-y	1d
2BB-y	[2G	.	.
=108	=108	=108	=108
1C	2G]	1G	1e
.	2E	.	.
2FF	2F	2r	1c
2C	2G	2E	.
=109	=109	=109	=109
2BB-y	2r	1F	2r
2AA	2C	.	2A
1GG	2D	1G	1B-y
.	[2G	.	.
=110	=110	=110	=110
1C	2G]	1E	1c
.	2A	.	.
1D	1F	1r	1A
=111	=111	=111	=111
2C	2E	2r	1r
2BB-y	2D	2G	.
4AA	1E	1A	2r
4GG	.	.	.
[2C	.	.	2c
=112	=112	=112	=112
2C]	1F	1B-y	1d
2BB-y	.	.	.
2.C	4E	1G	1e
.	4D	.	.
.	[2G	.	.
4BB-y	.	.	.
=113	=113	=113	=113
1AA	2G]	2r	1c
.	2F	2A	.
1GG	2.G	1B-y	2r
.	.	.	2d
.	4F	.	.
=114	=114	=114	=114
1C	4E	1c	1e
.	4D	.	.
.	1G	.	.
1D	.	1A	1f
.	2F	.	.
=115	=115	=115	=115
00GGl	00Gl	00B-yl	00dl
==	==	==	==
*-	*-	*-	*-
!!!system-decoration: [*]
!!!RDF**kern: i = editorial accidental
!!!RDF**kern: l = terminal long
!!!ENC: Benjamin Ory
!!!END: 2025/5/6
!!!EED: Benjamin Ory
!!!EEV: 2025/05/06
!!!YEC: Copyright 2025 Benjamin Ory, All Rights Reserved
!!!ONB: Translated from MusicXML on 2025/05/06